X:2266
T:Baase Chreest
C:Traditional
O:Isle of Man 
S:Quayle, Ballacorey, Ramsey 
Z:Clague Collection
B:Kiaull Vannin #266 
L:1/4
M:3/4 
K:G
D/ G/G/|G3/2 D/ G/A/|B3/2 G/B/B/|B e/d/ .d/.c/|A3/2 d/g/e/|d B/A/ G/A/|B3/2 G B/e/|dB A/G/|G3/2|| 

